X: 1
T: PRIMA DONNA -- HORNPIPE
B: Ryan's Mammoth Collection of Fiddle Tunes
R: hornpipe
M: 2/4
L: 1/16
Z: Contributed 20000821204412 by John Chambers John.Chambers:weema.com
K: D
uA2 \
| "_f"vd2vdd fdf"1"a | "2"b"1"a"2"b"3"c' "4"d'2"3"b2 | "3"afdf Adfa | gfe^d e2A2 |
| d2dd fdfa | babc' d'2b2 | afdf edc"4"e | d2f2d2 :|
|: "_p"uA2 \
| vd2vcd fdcd | e^def gfec | dABc defd | cegf e2A2 |
| d2cd fdcd | e^def gfec | dAdf edc"4"e | d2f2d2 :|
